X:1
T:Let Me Lean on Thee
T:Let Me Lean on Thee
T:Hubert Platt Main
T:Frances Jane (Fanny) Crosby, 1877
T:Public Domain Courtesy of the Cyber Hymnal™
C:Hubert Platt Main
Z:Public Domain
Z:Courtesy of the Cyber Hymnal™
%%score ( 1 2 ) 3
L:1/8
Q:1/4=110
M:4/4
K:F
V:1 treble 
V:2 treble 
V:3 bass 
V:1
 [FA]3 [FA] [CG]2 F2 | [Fc]2 [FB]2 [FA]2 [CG]2 | [CF]3 [CF] [CE]2 [CF]2 | [EG]8 | %4
w: 1.~When my way is|hedged a- bout me,|hedged with thorns of|care;|
w: 2.~O, for faith to|cast be- hind me|ev- ery sad com-|plaint—|
w: 3.~Clos- er let Thine|arms en- fold me,|clos- er to Thy|breast|
 [FA]3 [FA] [EG]2 F2 | [Ec]2 [GB]2 [FA]2 G2 | [CF]2 [CE]2 [EA]3 [EG] | F8 | %8
w: When the cross I|loved so dear- ly,|seems too hard to|bear;|
w: Faith to run and|not be wear- y,|walk and ne- ver|faint;|
w: Draw my wear- y,|trem- bling spir- it,|calm its doubts to|rest;|
 [EG]3 [EG] [DF]2 [EG]2 | [FA]2 [Ec]2 [Fc]2 [Af]2 | [Ge]3 [Ec] [FA]2 [F=B]2 | [Ec]8 | %12
w: When my heart is|bowed with sor- row,|and no light I|see—|
w: Thou dost know and|feel my weak- ness,|Sav- ior look on|me;|
w: Give me strength for|ev- ery bur- den|Thou hast borne for|me;|
 [FA]3 [FA] [EG]2 F2 | [Ec]2 [GB]2 [FA]2 G2 | [CF]2 [CE]2 [EA]3 [EG] | F8 |] %16
w: Lord, Thy ten- der|mer- cy plead- ing,|let me lean on|Thee.|
w: Now Thy ten- der|mer- cy plead- ing,|let me lean on|Thee.|
w: Lord, Thy ten- der|mer- cy plead- ing,|let me lean on|Thee.|
V:2
 x6 F2 | x8 | x8 | x8 | x8 | x6 (D_D) | x8 | F8 | x8 | x8 | x8 | x8 | x8 | x6 (D_D) | x8 | F8 |] %16
V:3
 [F,C]3 [F,C] [F,B,]2 [F,A,]2 | [F,D]2 [F,D]2 [F,C]2 [F,B,]2 | [F,A,]3 [A,C] [G,B,]2 [F,A,]2 | %3
 [C,C]8 | [F,C]3 [F,C] [B,C]2 [A,C]2 | [G,C]2 [C,C]2 [F,C]2 [B,,B,]2 | %6
 [C,A,]2 [C,G,]2 [C,C]3 [B,,B,] | [F,A,]8 | [C,C]3 [C,C] [C,C]2 [C,C]2 | %9
 [F,C]2 [G,C]2 [A,C]2 [F,C]2 | [G,C]3 [A,C] [G,=B,]2 [G,,D]2 | [C,C]8 | %12
 [F,C]3 [F,C] [B,C]2 [A,C]2 | [G,C]2 [C,C]2 [F,C]2 [B,,B,]2 | [C,A,]2 [C,G,]2 [C,C]3 [C,B,] | %15
 [F,,F,A,]8 |] %16

